X:3875
T:Mackintosh
O:england
R:March
M:4/4
L:1/8
K:D
D2 |\
G2G2 B2AG | c2c2 c2BA | G2G2 B2AG | A3B A2g2 |\
G2G2 B2AG | c2c2 dcBA |
B2g2 A2f2 | G3A G2 :|\
|:D2 |\
GABG BcdB | cdec BcdB | G2G2 B2AG | A3B A2g2 |
GABG BcdB | cdec dcBA | B2g2 A2f2 | G3A G2 :|\
|:e2 |\
dBGB dBGB | c2A2 A2 e2 |
dBGB dBGB | A3B A2e2 |\
dBGB dBGB | c2A2 A2e2 | B2g2 A2f2 | G3A G2 :|


